X:118
T:The King & the Tinker (pretty)
Z:Jack Campin - http://www.campin.me.uk
S:Blaikie MS (NLS MS.1578) p35, Blaikie #112
M:6/8
L:1/8
V:1 midi program 1 74
V:2 midi program 1 46 bass middle = d transpose -24
Q:3/8=80
K:Bb
[V:1] F|B2B c2c|BAG FGA|B2B F2 d|e3  f2e|dcB edc|
[V:2] z|B3  f3 |d2e d2c|B3  b2_a|g3 =a3 |b3 ^f3 |
%
[V:1] BAG FG_A|GFE D2F|B3  B2G|GFE D2F|B3 z2|]
[V:2] g3  d3  |e3  f3 |Bdf b2z|e3  f3 |B3 z2|]
W:Transcription (c) Jack Campin 2009, no mirroring or republication without permission

